build/assets/images/icons/fb.svg

<svg width="28" height="28" viewBox="0 0 28 28" fill="none" xmlns="http://www.w3.org/2000/svg">
<rect width="28" height="28" rx="14" fill="#E8EDF5"/>
<path d="M20.7812 13.75C20.7812 10.0039 17.7461 6.96875 14 6.96875C10.2539 6.96875 7.21875 10.0039 7.21875 13.75C7.21875 17.1406 9.67969 19.957 12.9336 20.4492V15.7188H11.2109V13.75H12.9336V12.2734C12.9336 10.5781 13.9453 9.62109 15.4766 9.62109C16.2422 9.62109 17.0078 9.75781 17.0078 9.75781V11.4258H16.1602C15.3125 11.4258 15.0391 11.9453 15.0391 12.4922V13.75H16.9258L16.625 15.7188H15.0391V20.4492C18.293 19.957 20.7812 17.1406 20.7812 13.75Z" fill="#17479E"/>
</svg>

<svg width="28" height="28" fill="none" xmlns="http://www.w3.org/2000/svg"><rect width="28" height="28" rx="14" fill="#E8EDF5"/><path d="M20.781 13.75A6.78 6.78 0 0014 6.969a6.78 6.78 0 00-6.781 6.781c0 3.39 2.46 6.207 5.715 6.7v-4.731H11.21V13.75h1.723v-1.477c0-1.695 1.011-2.652 2.543-2.652.765 0 1.53.137 1.53.137v1.668h-.847c-.848 0-1.12.52-1.12 1.066v1.258h1.886l-.301 1.969h-1.586v4.73a6.773 6.773 0 005.742-6.699z" fill="#17479E"/></svg>
